X: 1
T: Birdy Thirty
C: Noah VanNorstrand
R: reel
S: Fiddle Hell Online 2021-05-31
Z: 2021 John Chambers <jc:trillian.mit.edu>
M: 4/4
L: 1/8
K: A	# or maybe F#m or Bm
|:\
"F#m"FAce a2(uga) | "C#m"f(aec) B3(uc | "Bm"BA)vFA EFA(B | "D"cA)Bc "E"B(uAFE) |
"F#m"FAce a2(ga) | "C#m"f(aec) vB3(c | "Bm"BA)FA EFAE | "D"E(uF{G}FE) F3E :|
|:\
"F#m"FAcA d(ucAF) | "C#m"B(E{F}ED) vE3(c | "E"BA)FA EFA(uB | "Bm"cA)Bc B(AFE) |
"F#m"vFAcA d(ucAF) | "C#m"B(E{F}ED) vE3(c | "E"BA)FA EFAE | "Bm"E(uF{G}FE) F3E :|
%%text April 2021 Fiddle Hell handout with bowings
